X: 7367
T:den Lille Vendelbo
R:Hopsa
O:Denmark
M:4/4
K:G
B | \
  dddd dBGB | dcBc A3f | aaaa afdf \
|1agfg d3 :|2 a2g2 G4 ::\
G2A2 BdG2 | ABAF GBD2 | G2A2 BdG2 | ABAF G2z2|\
gggg fce2 | eeee dGB2 | dddd cBA2 | ffef g3 :|
